component-icons/svg/chiplist.svg

<?xml version="1.0" encoding="utf-8"?>
<!-- Generator: Adobe Illustrator 24.2.3, SVG Export Plug-In . SVG Version: 6.00 Build 0)  -->
<svg version="1.1" id="Layer_1" xmlns="http://www.w3.org/2000/svg" xmlns:xlink="http://www.w3.org/1999/xlink" x="0px" y="0px"
	 width="24px" height="24px" viewBox="0 0 24 24" enable-background="new 0 0 24 24" xml:space="preserve">
<path d="M13,7v10h11V7H13z M22,15h-7V9h7V15z M21,11h-4v2h2L21,11z M4,13h2l2-2H4V13z M0,17h11V7H0V17z M2,9h7v6H2V9z"/>
</svg>

<svg id="Layer_1" data-name="Layer 1" xmlns="http://www.w3.org/2000/svg" viewBox="0 0 24 24">
  <defs>
    <style>
      .cls-1 {
        fill: gray;
      }
    </style>
  </defs>
  <title>chiplist</title>
  <path class="cls-1" d="M13,7V17H24V7Zm9,8H15V9h7Zm-1-4H17v2h2ZM4,13H6l2-2H4ZM0,17H11V7H0ZM2,9H9v6H2Z"/>
</svg>
